X:1
T:Title
%%score { ( 1 3 ) | ( 2 4 ) }
L:1/8
M:4/4
K:Eb
V:1 treble nm="Grand Piano"
V:3 treble 
V:2 bass 
V:4 bass 
V:1
 z4 z2[Q:1/4=104] E>F | G2 G2 G>F G>[FA] | [Ac]2 [GB]2 G2 (3GB[CEA] | %3
 [A,DG]2 [A,DF]2 [A,B,]2 (3[A,-D-F][A,D][A,DG] | F2 E2 G2 E>F | G2 G2 G>F G>A | %6
 [Ac]2 [GB]2 z2 _D2 | ee[Ed][Ec] Be z A |[M:3/4] G2 [DF]2 E2 |[M:1/4] BG |[M:4/4] z2 [Ge]2 z4 | %11
 [EGB]2 [EGB]2 [EGB]2 [B,FA][B,EG] | [B,DF]2 [B,DF]2 [A,DF][G,_D=E][B,=DF][DFA] | %13
 [EAc]2 [EGB]2 [EGB]2 BG | z2 [_Ge]2 z4 | z4 B4 | cdec [GB][Be] z f |[M:3/4] e2 [Fd]2 [Ge]2 |] %18
V:2
 z4 z2 [E,G,B,]>[E,A,B,] | [E,B,E]2 [E,B,E]2 [E,B,E]>[E,B,D] [E,B,E]>[E,B,] | %2
 [E,E]2 [E,E]2 [E,B,E]2 (3[E,-B,E-][E,G,E]E, | B,,2 B,,2 D,2 (3B,,-[B,,A]B,, | %4
 [E,G,B,]2 [E,G,B,]2 [E,B,E]2 [E,G,B,]>[E,A,B,] | %5
 [E,B,E]2 [E,B,E]2 [E,B,E]>[A,B,D] [G,B,E]>[F,DF] | z4 B,2 z2 | %7
 [A,,CE][A,,CE][A,,B,][A,,A,] [E,G,E][K:treble][G,B,E] z [A,CF] | %8
[M:3/4][K:bass] [B,E]2 [B,,A,]2 [E,G,]2 |[M:1/4][K:treble] GE | %10
[M:4/4][K:bass] [E,B,]2 [E,B,]2 [E,B,]2 CD | E,2 E,>E, E,2 E,E, | B,,2 B,,2 B,,B,,B,,B,, | %13
 E,2 E,2 E,2[K:treble] GE | [E,B,]2 [E,=A,]2 [E,B,]2 CD | E,2 F,>F, [G,E]2 [E,_D]2 | %16
 [A,CA][A,=B,A][A,CA][A,DA][K:bass] [E,E][G,_B,] z[K:treble] [A,CA] | %17
[M:3/4] [B,G]2[K:bass] [B,,B,]2 [E,B,]2 |] %18
V:3
 x8 | x8 | x8 | x8 | x8 | x8 | z4 G4 | x8 |[M:3/4] x6 |[M:1/4] x2 | %10
[M:4/4] [Ge]2 z z/ [E,B,]/ [Ge]2 [Bd][Ac] | x8 | x8 | x8 | [Ge]2 z z/ [E,C]/ [=Ge]2 [Bd][Ac] | %15
 [EGB]2 [DAB]2 z2 G2 | x8 |[M:3/4] x6 |] %18
V:4
 x8 | x8 | x8 | x8 | x8 | x8 | [E,E]2 [E,E]2 [E,E]4 | x5[K:treble] x3 |[M:3/4][K:bass] x6 | %9
[M:1/4][K:treble] x2 |[M:4/4][K:bass] x8 | x8 | x8 | x6[K:treble] x2 | x8 | x8 | %16
 x4[K:bass] x3[K:treble] x |[M:3/4] x2[K:bass] x4 |] %18

